public/assets/images/icons/mail.svg

<svg viewBox="0 0 577.94 577.94" xmlns="http://www.w3.org/2000/svg"><circle cx="288.97" cy="288.97" fill="#050a30" r="288.97"/><path d="m428.09 174.55h-278.24a32.47 32.47 0 0 0 -32.44 32.45v164a32.47 32.47 0 0 0 32.44 32.43h278.24a32.47 32.47 0 0 0 32.43-32.43v-164a32.47 32.47 0 0 0 -32.43-32.45zm-9.71 22.52-129.12 78.54-117.2-78.54zm9.71 183.8h-278.24a9.92 9.92 0 0 1 -9.91-9.91v-163.96a9.89 9.89 0 0 1 .76-3.81l148 99.16 149.3-90.85v159.5a9.93 9.93 0 0 1 -9.91 9.87z" fill="#fff" stroke="#fff" stroke-miterlimit="10" stroke-width=".7"/></svg>

<svg id="Layer_1" data-name="Layer 1" xmlns="http://www.w3.org/2000/svg" viewBox="0 0 577.94 577.94"><defs><style>.cls-1{fill:#050a30;}.cls-2{fill:#fff;stroke:#fff;stroke-miterlimit:10;stroke-width:0.7px;}</style></defs><circle class="cls-1" cx="288.97" cy="288.97" r="288.97"/><path class="cls-2" d="M428.09,174.55H149.85A32.47,32.47,0,0,0,117.41,207V371a32.47,32.47,0,0,0,32.44,32.43H428.09A32.47,32.47,0,0,0,460.52,371V207A32.47,32.47,0,0,0,428.09,174.55Zm-9.71,22.52L289.26,275.61l-117.2-78.54Zm9.71,183.8H149.85a9.92,9.92,0,0,1-9.91-9.91V207a9.89,9.89,0,0,1,.76-3.81l148,99.16L438,211.5V371A9.93,9.93,0,0,1,428.09,380.87Z"/></svg>
